X:1
T: Hit and Miss
N:
C:aka  Daphne
S:play 3 times
A:
O:
R:
M:6/8
K:Em
I:speed 150
%W: A
% voice 1 (1 lines, 42 notes)
K:Em
M:6/8
L:1/16
E2 |G4 A2 B4 e2 d3 e f2 e4 B c d2 B2 G2 A2 F2 D2 E2 G2 F2 E4 E2 |G4 A2 B4 e2 d3 e f2 e4 B c d2 B2 G2 A2 F2 D2 E2 G2 F2 E6 |
%W: B
% voice 1 (1 lines, 34 notes)
g4 g2 f4 f2 e3 f e2 d2 B4 d3 c B2 A4 G2 G2 F4 G6 |g4 g2 f4 f2 e3 f e2 d2 B4 d3 c B2 A4 G2 G2 F4 G6 |
%W: C
% voice 1 (1 lines, 34 notes)
d2 d2 e2 d2 B2 G2 d2 e f g2 a2 f2 d2 B3 A G2 F4 E2 e2 e2 d2 e2 B2 B2 |d3 c B2 A2 E2 G2 F3 G F2 E4 ||
